X:10622
T:Eg gjekk meg opp til seterli
C:anon., arr. Frank Nordberg
O:Norway
Z:Transcribed by Frank Nordberg - http://www.musicaviva.com
F:http://abc.musicaviva.com/tunes/norway/eg-gjekk-meg-opp-dm/eg-gjekk-meg-opp-dm-ddad1.abc
V:1 Program 1 25 up %Acoustic guitar
V:2 Program 1 25 merge down %Acoustic guitar
M:2/4
L:1/8
Q:1/4=90
K:Dm
V:1
A|d>d d>d|^c>d e>f|d>d d>^c|de/f/ HA:|
V:2
z|[D,4D4A4]|A4|[D,4D4A4]|[D2A2] Hz:|
%
V:1
e|:ff/f/ f>g|ee/e/ e>f|dd/d/ d^c/d/|[1ee/f/ de:|[2ee/f/ d2|]
V:2
z|:[D3A3]D,|z/A3/-AA|[D2A2]z/D,3/|[1z/A3/ z/DA/:|[2z/A3/ [DA]D,|]
W:
W:Eg gjekk meg opp til seterli
W:til jenta mi, ho var ikkje bli'
W:ho var ikkje grei,
W:ho svara meg nei,
W:kva vil du no her, du f\aer ikkje meg.
W:
W:Men som det lei til laurdagskveld,
W:Eg pynta meg og gjekk i veg lell.
W:Og vegen var bratt,
W:eg gjekk og eg datt,
W:eg kom ikkje fram f\or langt p\aa natt.
W:
W:Men som eg kom til seterstad,
W:d\aa vart eg glad: Ho svara meg ja.
W:"Eg er ikkje vond,
W:du ska' f\aa rom,
W:eg vart s\aa glad eg s\aag du kom."
W:
W:S\aa hengd' ho over gryta si
W:med rjome i og koka til meg.
W:Og grauten var heit
W:og han var feit,
W:eg sku' skunda meg, det var'kje greit
W:
W:
W:  From Musica Viva - http://www.musicaviva.com
W:  the Internet center for free sheet music downloads.
